X:2298
T:Skeelley Vreeshey 
C:Traditional
O:Isle of Man
S:Mona Melodies No 5 and Manx National Music
Z:Clague collection / Manx National Music
N: Also in A.W. Moore
B:Kiaull Vannin #298 
M:3/4 
L:1/8 
Q:160 
K:G 
GB dG Bd|cB AG F2|GB dG Bd|cA GF G2| 
ge dc B2|Aa ag f2|ge dc B2|Gg gf g2|| 

